T: Top It Off
M: 9/8
L: 1/8
K: Dmaj
c2 A A2 c f2 c | def gfe fed | c2 A A2 c f2 c | ded c2 A F2 :| a2 f f2 e f2 a | g2 _e e2 ^d e2 g | f2 d d2 ^c d2 f |1 edc gfe f2 :|
